X: 174
T: Sijieme xiang qingren
%%abc-version 2.0
%%abcx-abcm2ps-target-version 5.9.1 (29 Sep 2008)
%%abc-creator hum2abc beta
%%abcx-conversion-date 2013/10/02 07:52:29
%%abc-edited-by Helmut Schaffrath
%%humdrum-veritas 543502442
%%humdrum-veritas-data 2291055761
%%continueall 1
%%barnumbers 0
L: 1/8
K: E
E C B G [I:setbarnb 1]| 
F4 | 
B C E C | 
F C E C | 
B,4 | 
C C/ C/ E B, | 
C4 | 
F F/ G/ C E | 
G C E C | 
B,4 | 
C C/ C/ E B, | 
C4 | 
G G/ F/ D C | 
B,4 | 
B> e c B | 
A2B G | 
F B G F | 
B CE4 | 
[M:2/4]B CE2 | 
C FE2 |]  



